!!!COM: Bach, Johann Sebastian
!!!CDT: 1685/3//-1750/7/28/
!!!OTL@@DE: Jesus Christus, unser Heiland
!!!AGN: 4-Part Chorale
!!!SCT: Erk 030
!!!SCT: BWV 363
!!!YEC: Copyright 1994, David Huron
!!!YEC: Changes/Additions 2001 by Craig Stuart Sapp
!!!YEN: United States of America
!!!SMA: 371 Bach Chorales, edited by Ludwig Erk, C.F. Peters
!!!PDT: 1850, 1865
!!!ONB: Harmony and Root analysis done manually
**kern	**kern	**kern	**kern	**root	**harm	**kern
!bass	!tenor	!alto	!soprno	!	!	!
*Iorgan	*Iorgan	*Iorgan	*Iorgan	*Iorgan	*	*Iorgan
*M4/4	*M4/4	*M4/4	*M4/4	*M4/4	*M4/4	*M4/4
*met(C)	*met(C)	*met(C)	*met(C)	*met(C)	*met(C)	*met(C)
*MM60	*MM60	*MM60	*MM60	*MM60	*MM60	*MM60
*k[f#]	*k[f#]	*k[f#]	*k[f#]	*k[f#]	*k[f#]	*k[f#]
*e:	*e:	*e:	*e:	*e:	*e:	*e:
=1-	=1-	=1-	=1-	=1-	=1-	=1-
4.E	4G	4B	4e	4EE	i	4E 4g 4b
.	4F#	4B	4b	4BB	vb	4b 4D 4ff#
8D	.	.	.	.	.	.
2C	4G	8e	4b	4CC	VI7	4C 4e 4g 4b
.	.	8d#	.	.	.	.
.	8F#	4e	4a	4AA	ivb	4a 4C 4ee
.	8E	.	.	.	.	.
=2	=2	=2	=2	=2	=2	=2
8BB	4F#	4d#	4b	4BB	V	4B 4dd# 4ff#
8A	.	.	.	.	.	.
8G	8B	8e	8e	8EE	ib	8e 8G 8b
8F#	8A	8d#	8f#	8DD	-VIIb	8d 8F# 8a
8E	4B	4e	4g	4EE	i	4E 4g 4b
8D	.	.	.	.	.	.
8C	8e	4e	4g	4CC	VI	4C 4e 4g
8BB	8d#	.	.	.	.	.
=3	=3	=3	=3	=3	=3	=3
4AA#	4c#	4.e	4g	4AA#	viioD7/V	4A# 4cc# 4ee 4gg
4BB	8F#	.	4f#	4BB	V	4B 4dd# 4ff#
.	16B	8d#	.	.	.	.
.	16An	.	.	.	.	.
2EE;	2G;	2B;	2e;	2EE;	i;	2E; 2g; 2b;
=4	=4	=4	=4	=4	=4	=4
8E	4B	4e	4g	4EE	i	4E 4g 4b
8D	.	.	.	.	.	.
4Cn	4cn	4e	4g	4CC	VI	4C 4e 4g
4BB	4G	4dn	4g	4GG	IIIb	4g 4B 4dd
4C	4G	4c	4e	4CC	VI	4C 4e 4g
=5	=5	=5	=5	=5	=5	=5
8C	8G	4d	4g	4GG	IIIb	4g 4B 4dd
8BB	16A	.	.	.	.	.
.	16B	.	.	.	.	.
4AA	4c	8e	4a	4AA	IV	4A 4cc# 4ee
.	.	8f#	.	.	.	.
4GG	8d	4.g	4b	4GG	III	4G 4b 4dd
.	16e	.	.	.	.	.
.	16d	.	.	.	.	.
4AA	16c	.	4a	4FF#	iib	4f# 4A 4cc#
.	16B	.	.	.	.	.
.	8c	[8f#	.	.	.	.
=6	=6	=6	=6	=6	=6	=6
2BB	4B	8f#]	4g	4EE	ic	4e 4g 4B
.	.	4e	.	.	.	.
.	8.B	.	4f#	4BB	V	4B 4dd# 4ff#
.	.	8d#	.	.	.	.
.	16A	.	.	.	.	.
2E;	2G;	2B;	2e;	2EE;	i;	2E; 2g; 2b;
=7	=7	=7	=7	=7	=7	=7
4E	8B	4e	4g	4EE	i	4E 4g 4b
.	8c	.	.	.	.	.
4BB	4d	8g	4g	4GG	IIIb	4g 4B 4dd
.	.	8f#	.	.	.	.
8C	4c	4e	4g	4CC	VI	4C 4e 4g
8D	.	.	.	.	.	.
8E	4G	4c	4e	4CC	VIb	4c 4E 4g
8D	.	.	.	.	.	.
=8	=8	=8	=8	=8	=8	=8
8C	4G	8e	4g	4CC	VI	4C 4e 4g
8BB	.	8d	.	.	.	.
4AA	4c	8e	4a	4AA	IV	4A 4cc# 4ee
.	.	8f#	.	.	.	.
4GG	[4d	4.g	4b	4GG	III	4G 4b 4dd
4D	8.d]	.	4a	4DD	-VII	4D 4f# 4a
.	.	8f#	.	.	.	.
.	16c	.	.	.	.	.
=9	=9	=9	=9	=9	=9	=9
2GG;	2B;	2d;	2g;	2GG;	III;	2G; 2b; 2dd;
4r	4r	4r	4r	4r	r	4r
4BB	4d	8g	4dd	4GG	IIIb	4g 4B 4dd
.	.	8fn	.	.	.	.
=10	=10	=10	=10	=10	=10	=10
4C	8c	4e	4ee	4CC	VI	4C 4e 4g
.	8B	.	.	.	.	.
4D	4A	4f#y	8dd	4DD	-VII	4D 4f# 4a
.	.	.	8cc	.	.	.
4.E	8G	8g	8b	8EE	i	8E 8g 8b
.	8c	8d#	8a	8DD#	viioD7	8D# 8f# 8a 8cc
.	8B	8e	8g	8EE	i	8E 8g 8b
8F#	8A	[8dn	8a	8DD	-VIIb	8d 8F# 8a
=11	=11	=11	=11	=11	=11	=11
8G	8G	8d]	4b	8GG	III	8G 8b 8dd
8BB	8d	[8g	.	8GG	IIIb	8g 8B 8dd
8C#	8e	8g]	4a	8AA	V7b/-VII	8a 8C# 8ee 8ggg
8D#	8B	[8f#	.	8BB	V7b	8b 8D# 8ff# 8aa
8E	4B	8f#]	4g	4EE	i	4E 4g 4b
8GG	.	[8e	.	.	.	.
8AA	8cn	8e]	4f#	8FF#	viiD7/III	8F# 8a 8cc# 8ee-
8BB	16B	8d#	.	8BB	V	8B 8dd# 8ff#
.	16A	.	.	.	.	.
=12	=12	=12	=12	=12	=12	=12
2.EE;	2.G#;	2.B;	2.e;	2.EE;	I;	2.E; 2.g#; 2.b;
==	==	==	==	==	==	==
*-	*-	*-	*-	*-	*-	*-
